icons/split-units-16.svg

<svg xmlns="http://www.w3.org/2000/svg" viewBox="0 0 16 16"><path d="M16 3v11h-6v-1h5V4h-5V3zM1 14h6v-1H2V4h5V3H1zm7 0h1v-2H8zm0-3h1V9H8zm0-3h1V6H8zm0-3h1V3H8zm0-3h1V1H8zm0 14h1v-1H8z"/><path fill="none" d="M0 0h16v16H0z"/></svg>

<svg id="icons" xmlns="http://www.w3.org/2000/svg" viewBox="0 0 16 16"><defs><style>.cls-1{fill:none;}</style></defs><path d="M16,3V14H10V13h5V4H10V3ZM1,14H7V13H2V4H7V3H1Zm7,0H9V12H8Zm0-3H9V9H8ZM8,8H9V6H8ZM8,5H9V3H8ZM8,2H9V1H8ZM8,16H9V15H8Z"/><rect class="cls-1" width="16" height="16"/></svg>
